frontend/public/checkbox.svg

<svg xmlns="http://www.w3.org/2000/svg" viewBox="0 0 448 512"><!--!Font Awesome Free 6.7.2 by @fontawesome - https://fontawesome.com License - https://fontawesome.com/license/free Copyright 2025 Fonticons, Inc.--><path fill="#fb7185" d="M64 32C28.7 32 0 60.7 0 96L0 416c0 35.3 28.7 64 64 64l320 0c35.3 0 64-28.7 64-64l0-320c0-35.3-28.7-64-64-64L64 32zM337 209L209 337c-9.4 9.4-24.6 9.4-33.9 0l-64-64c-9.4-9.4-9.4-24.6 0-33.9s24.6-9.4 33.9 0l47 47L303 175c9.4-9.4 24.6-9.4 33.9 0s9.4 24.6 0 33.9z"/></svg>

<svg width="448" height="512" viewBox="0 0 448 512" fill="none" xmlns="http://www.w3.org/2000/svg">
<path d="M64 32C28.7 32 0 60.7 0 96V416C0 451.3 28.7 480 64 480H384C419.3 480 448 451.3 448 416V96C448 60.7 419.3 32 384 32H64ZM337 209L209 337C199.6 346.4 184.4 346.4 175.1 337L111.1 273C101.7 263.6 101.7 248.4 111.1 239.1C120.5 229.8 135.7 229.7 145 239.1L192 286.1L303 175C312.4 165.6 327.6 165.6 336.9 175C346.2 184.4 346.3 199.6 336.9 208.9L337 209Z" fill="#FB7185"/>
</svg>
